src/assets/svg/car-brands/Toyota_EU 1.svg

<svg width="32" height="21" viewBox="0 0 32 21" fill="currentColor" xmlns="http://www.w3.org/2000/svg">
<g clip-path="url(#clip0_601_1308)">
<path d="M16 0.143749C7.24587 0.143749 0.147949 4.73541 0.147949 10.3979C0.147949 16.0625 7.24587 20.6562 16 20.6562C24.7542 20.6562 31.8521 16.0646 31.8521 10.3979C31.8521 4.73125 24.7542 0.143749 16 0.143749ZM16 16.2542C14.6979 16.2542 13.6354 13.6896 13.5688 10.4625C14.3521 10.5312 15.1667 10.5687 16 10.5687C16.8334 10.5687 17.6479 10.5312 18.4313 10.4625C18.3646 13.6875 17.3021 16.2542 16 16.2542ZM13.7292 7.9C14.0834 5.61875 14.9667 4 16 4C17.0334 4 17.9167 5.61875 18.2709 7.9C17.5438 7.96458 16.7854 8 16 8C15.2146 8 14.4563 7.96458 13.7292 7.9ZM16 1.62708C14.3 1.62708 12.85 4.17292 12.3146 7.72708C9.0917 7.225 6.8417 6.07917 6.8417 4.74792C6.8417 2.95208 10.9417 1.49583 16 1.49583C21.0584 1.49583 25.1584 2.95208 25.1584 4.74792C25.1584 6.07917 22.9084 7.225 19.6854 7.72708C19.15 4.17292 17.7 1.62708 16 1.62708ZM2.42087 10.0146C2.42087 8.27708 3.08962 6.64583 4.2542 5.24583C4.2417 5.34375 4.23337 5.44375 4.23337 5.54375C4.23337 7.73333 7.5167 9.6 12.0979 10.2875C12.0938 10.4458 12.0938 10.6062 12.0938 10.7667C12.0938 14.8479 13.2375 18.3042 14.8188 19.4771C7.87087 19.0583 2.42087 14.9812 2.42087 10.0146ZM17.1813 19.4771C18.7625 18.3042 19.9063 14.8479 19.9063 10.7667C19.9063 10.6042 19.9042 10.4458 19.9021 10.2875C24.4813 9.6 27.7667 7.73542 27.7667 5.54375C27.7667 5.44375 27.7584 5.34375 27.7459 5.24583C28.9104 6.65 29.5792 8.27708 29.5792 10.0146C29.5792 14.9812 24.1292 19.0583 17.1813 19.4771Z" fill="currentColor"/>
</g>
<defs>
<clipPath id="clip0_601_1308">
<rect width="32" height="20.8" fill="white"/>
</clipPath>
</defs>
</svg>

<svg xmlns="http://www.w3.org/2000/svg" width="32" height="21" fill="currentColor" viewBox="0 0 32 21"><g clip-path="url(#clip0_601_1308)"><path d="M16 .144C7.246.144.148 4.735.148 10.398c0 5.665 7.098 10.258 15.852 10.258s15.852-4.591 15.852-10.258S24.754.144 16 .144m0 16.11c-1.302 0-2.365-2.564-2.431-5.792a28 28 0 0 0 4.862 0c-.066 3.226-1.129 5.792-2.431 5.792M13.73 7.9C14.082 5.619 14.966 4 16 4s1.917 1.619 2.27 3.9a25.7 25.7 0 0 1-4.54 0M16 1.627c-1.7 0-3.15 2.546-3.685 6.1-3.223-.502-5.473-1.648-5.473-2.98 0-1.795 4.1-3.251 9.158-3.251s9.158 1.456 9.158 3.252c0 1.331-2.25 2.477-5.473 2.98-.535-3.555-1.985-6.1-3.685-6.1M2.42 10.015c0-1.738.67-3.37 1.834-4.77a2 2 0 0 0-.02.299c0 2.19 3.283 4.056 7.864 4.744q-.005.237-.004.479c0 4.08 1.144 7.537 2.725 8.71C7.87 19.058 2.42 14.981 2.42 10.015m14.761 9.462c1.581-1.173 2.725-4.63 2.725-8.71q0-.243-.004-.48c4.58-.687 7.865-2.552 7.865-4.743q-.002-.15-.021-.298c1.164 1.404 1.833 3.031 1.833 4.769 0 4.966-5.45 9.043-12.398 9.462"/></g><defs><clipPath id="clip0_601_1308"><path fill="#fff" d="M0 0h32v20.8H0z"/></clipPath></defs></svg>
